X: 33087
T: Primrose Polka, The
R: barndance
M: 4/4
K: Gmajor
|:d2|Bc^cd edcd|b2 g2 b2 g2|Bc^cd edcd|A4- A2 G2|
A^GAB c2 B/c/d|f2 c2 f3 e|dg e2 dB A2|1 B4- B2:|2 G4- G2||
|:d2|B4- BBB/c/d|b4- b3 a|gdB/c/d g2 ag|f2 e2 e3 e|
[1 A4- AAA/B/c|f4- f3 e|dg e2 dB ^A2|B4- B2:|
[2 c'bab c'3 a|baga b3 g|age/f/g ac'ba|g2 b2 g3 d||
|:bagf g2 d2|bagf g3 d|e^def gage|
[1 d4- d2 B2|c2 B/c/d d3 c|B2 A/B/c d3 B|^c4- c2 d2|de/d/ c2 BA/B/ A2:|
[2 d4- d2 g2|e2 ^de c'3 a|d2 ^cd b3 g|d2 ^cd g2 f2|g4 g2||

